X:51
T:51 Untitled Polka
C:Welch MS
I:abc2nwc
M:2/4
L:1/16
K:G
A2|d2d2 B2G2|e6fg|d2d2 B2G2|A6Bc|d2d2 cBAG|cdef g2c2|B2B2 A2A2|G4G2:|
z2|D2FA|c2c2|B2d2 G2B2|D2FA c2c2|B4d4|e2d2 c2A2|B2d2 g2B2|ABcA D2F2|G4G2:|

